!!!COM: Palestrina, Giovanni Perluigi da
!!!OPR: Missa Ecce sacerdos magnus
!!!OTL: Gloria
**kern	**kern	**kern	**kern
*Ibass	*Itenor	*Icalto	*Icant
!Bassus	!Tenor	!Altus	!Cantus
*clefF4	*clefGv2	*clefG2	*clefG2
*k[]	*k[]	*k[]	*k[]
*G:mix	*G:mix	*G:mix	*G:mix
*M4/2	*M4/2	*M4/2	*M4/2
=1	=1	=1	=1
0r	0r	1.g	1r
.	.	.	[1dd
.	.	2g	.
=2	=2	=2	=2
0r	0r	1g	2dd]
.	.	.	2dd
.	.	1f	1dd
=3	=3	=3	=3
0r	0r	2e	1cc
.	.	2c	.
.	.	2.e	2b
.	.	.	2g
.	.	4f	.
=4	=4	=4	=4
0r	0r	1.g	2.b
.	.	.	4cc
.	.	.	[1dd
.	.	4f	.
.	.	4e	.
=5	=5	=5	=5
0r	0d	2f	2dd]
.	.	2d	4cc
.	.	.	4b
.	.	2.f	2a
.	.	.	2d
.	.	4g	.
=6	=6	=6	=6
0r	0d	2a	2f
.	.	1g	2g
.	.	.	1a
.	.	2f#	.
=7	=7	=7	=7
1.G	0B	2.g	0g
.	.	4f	.
.	.	2e	.
2G	.	4d	.
.	.	4c	.
=8	=8	=8	=8
1G	0d	2B	0r
.	.	4A	.
.	.	4G	.
1F	.	2.A	.
.	.	4B	.
=9	=9	=9	=9
2E	0e	1c	1r
2C	.	.	.
2.E	.	1G	2r
.	.	.	[2cc
4F	.	.	.
=10	=10	=10	=10
0G	0d	1r	2cc]
.	.	.	2b-
.	.	2r	2g
.	.	[2g	2b-
=11	=11	=11	=11
1r	0d	2g]	1a
.	.	2f	.
2r	.	2d	2a
[2d	.	2f	2a
=12	=12	=12	=12
2d]	0r	2.e	2b
2c	.	.	2.cc
.	.	8f	.
.	.	8g	.
2A	.	2a	.
.	.	.	4dd
2c	.	[2g	[2ee
=13	=13	=13	=13
1B-	0r	4g]	4ee]
.	.	4f	4dd
.	.	2d	1dd
1A	.	1e	.
.	.	.	2cc#
=14	=14	=14	=14
2r	0d	1d	2dd
2G	.	.	2b
2G	.	1r	2b
2F#	.	.	2a
=15	=15	=15	=15
2.G	0d	2r	2.b
.	.	2g	.
8F	.	.	8a
8E	.	.	8g
1D	.	2g	2a
.	.	2f#	[2dd
=16	=16	=16	=16
2r	0B	2.g	4dd]
.	.	.	4cc
1G	.	.	4b
.	.	8f	4a
.	.	8e	.
.	.	2d	1b
2G	.	[2e	.
=17	=17	=17	=17
2.A	0c	4e]	1a
.	.	4d	.
.	.	4c	.
4A	.	4B	.
2A	.	1A	1r
[2c	.	.	.
=18	=18	=18	=18
2c]	0d	1G	2r
4B	.	.	1dd
4A	.	.	.
1B	.	2r	.
.	.	[2g	2dd
=19	=19	=19	=19
1c	0c	2g]	2.ee
.	.	2g	.
.	.	.	4ee
1r	.	2.e	2ee
.	.	.	[2cc
.	.	4e	.
=20	=20	=20	=20
0r	0G	2e	2cc]
.	.	4d	4b
.	.	4c	4a
.	.	1d	1b
=21	=21	=21	=21
1.C	0G	[0e	1cc
.	.	.	2r
2C	.	.	[2g
=22	=22	=22	=22
2.c	0r	1e]	2g]
.	.	.	2g
4B	.	.	.
4A	.	2r	2.cc
4G	.	.	.
[2F	.	[2c	.
.	.	.	4b
=23	=23	=23	=23
2F]	0r	2c]	2a
2E	.	2c	2g
1D	.	[1f	2a
.	.	.	4g
.	.	.	4f
=24	=24	=24	=24
1C	0c	2f]	0g
.	.	2e	.
2r	.	[1e	.
2C	.	.	.
=25	=25	=25	=25
2C	0c	1e]	2r
2C	.	.	2g
2.c	.	2r	2g
.	.	[2e	2g
4B	.	.	.
=26	=26	=26	=26
4A	0c	2e]	2.cc
4G	.	.	.
2.F	.	1f	.
.	.	.	4b
.	.	.	2a
4E	.	.	.
2C	.	2e	[2g
=27	=27	=27	=27
0D	0B	1d	2g]
.	.	.	4f#
.	.	.	4e
.	.	1d	1f#
=28	=28	=28	=28
0C	0c	2.e	4g
.	.	.	4f
.	.	.	4e
.	.	4f	4d
.	.	2g	1e
.	.	[2G	.
=29	=29	=29	=29
2r	0B	4G]	1d
.	.	4A	.
2.G	.	4B	.
.	.	4c	.
.	.	1d	2r
4G	.	.	.
2G	.	.	[2dd
=30	=30	=30	=30
2F	0A	0r	4dd]
.	.	.	4dd
2D	.	.	2dd
1F	.	.	2cc
.	.	.	2a
=31	=31	=31	=31
0E	0G	2r	2.b
.	.	1g	.
.	.	.	4a
.	.	.	2b
.	.	2g	2cc#
=32	=32	=32	=32
0D	0A	1f	0dd
.	.	2d	.
.	.	[2f	.
=33	=33	=33	=33
0C	0c	2f]	1g
.	.	4e	.
.	.	4d	.
.	.	2e	1r
.	.	2e	.
=34	=34	=34	=34
0G	0B	4d	2r
.	.	4c	.
.	.	4B	1dd
.	.	4A	.
.	.	2G	.
.	.	[2g	2dd
=35	=35	=35	=35
0r	0A	2g]	1cc
.	.	4f#	.
.	.	4e	.
.	.	1f#	2a
.	.	.	[2cc
=36	=36	=36	=36
1r	0G	2.g	2cc]
.	.	.	4b
.	.	8f	4a
.	.	8e	.
2r	.	2.d	2b
[2d	.	.	2b
.	.	4e	.
=37	=37	=37	=37
2d]	0r	1f	2.a
2d	.	.	.
.	.	.	4b
1c	.	[1e	4cc
.	.	.	4dd
.	.	.	2ee
=38	=38	=38	=38
2A	0r	1e]	2.cc
1c	.	.	.
.	.	.	8b
.	.	.	8a
.	.	2r	2g
4B	.	2d	[2a
4A	.	.	.
=39	=39	=39	=39
2B	0r	2d	2a]
2B	.	2d	2g#
2A	.	1e	1a
[2A	.	.	.
=40	=40	=40	=40
4A]	0r	2c	2r
4G	.	.	.
4F	.	2.f	2a
4E	.	.	.
1D	.	.	2a
.	.	4e	.
.	.	[2d	2a
=41	=41	=41	=41
0G	0d	4d]	0b
.	.	4c	.
.	.	4B	.
.	.	4A	.
.	.	2G	.
.	.	[2g	.
=42	=42	=42	=42
2r	0d	2g]	0a
2D	.	4f#	.
.	.	4e	.
2D	.	1f#	.
2D	.	.	.
=43	=43	=43	=43
0E	0B	2g	2r
.	.	4e	2.g
.	.	4d	.
.	.	4e	.
.	.	4f	4a
.	.	[2g	4b
.	.	.	4g
=44	=44	=44	=44
1D	0d	2g]	1a
.	.	2f#	.
2G	.	1g	2b
2B-	.	.	[2dd
=45	=45	=45	=45
0A	0e	1a	2dd]
.	.	.	4cc#
.	.	.	4b
.	.	2r	1cc#
.	.	[2a	.
=46	=46	=46	=46
1D	0d	2a]	0dd
.	.	2f	.
2r	.	1b-	.
[2G	.	.	.
=47	=47	=47	=47
2G]	0d	2.a	1r
2F	.	.	.
.	.	4g	.
1B-	.	2f	2r
.	.	2d	[2dd
=48	=48	=48	=48
2.A	0r	2f	2dd]
.	.	2.e	2cc
4G	.	.	.
2F	.	.	1ff
.	.	4d	.
2D	.	[2d	.
=49	=49	=49	=49
1A	0r	2d]	2.ee
.	.	2c	.
.	.	.	4dd
1A	.	2e	2cc
.	.	2f#	2a
=50	=50	=50	=50
1.G	0d	2.g	2.b
.	.	8f	4b
.	.	8e	.
.	.	2d	2b
4F	.	[2g	4a
4E	.	.	4g
=51	=51	=51	=51
0D	0d	2g]	1a
.	.	4f#	.
.	.	4e	.
.	.	1f#	2r
.	.	.	[2dd
=52	=52	=52	=52
2r	0B	0g	2dd]
1G	.	.	2dd
.	.	.	1b
2G	.	.	.
=53	=53	=53	=53
1F	0c	1r	1a
1E	.	2r	2.g
.	.	[2g	.
.	.	.	4a
=54	=54	=54	=54
2D	0d	2g]	2b
1D	.	2f	4a
.	.	.	4g
.	.	1f	1a
2D	.	.	.
=55	=55	=55	=55
1A	0c	1e	2r
.	.	.	2a
1A	.	2e	2a
.	.	4c	[2cc
.	.	4d	.
=56	=56	=56	=56
1E	0G	4e	2cc]
.	.	4f	.
.	.	1g	4b
.	.	.	4a
1r	.	.	4b
.	.	.	4cc
.	.	2f	[2dd
=57	=57	=57	=57
1r	0G	2e	2dd]
.	.	4d	1cc
.	.	4c	.
1G	.	2d	.
.	.	2d	2b
=58	=58	=58	=58
2A	0r	1c	2a
2.c	.	.	4g
.	.	.	4f
.	.	2r	[1e
4B	.	.	.
2G	.	2B	.
=59	=59	=59	=59
1A	0r	2c	1e]
.	.	2.e	.
2E	.	.	2r
.	.	8d	.
.	.	8c	.
2E	.	2B	2g
=60	=60	=60	=60
2F	0c	2.A	2a
2.A	.	.	2.cc
.	.	4B	.
.	.	4c	.
4G	.	4d	4b
2E	.	2e	2g
=61	=61	=61	=61
1F	0c	1A	1a
2C	.	2r	2e
2C	.	2e	[2ee
=62	=62	=62	=62
2E	0c	2g	2ee]
2.F	.	2.a	2cc
.	.	.	2ff
4E	.	4g	.
2C	.	2e	[2ee
=63	=63	=63	=63
1D	0A	1f	2ee]
.	.	.	2dd
1r	.	2e	1ee
.	.	[2a	.
=64	=64	=64	=64
1.A	0c	2a]	1r
.	.	2a	.
.	.	1e	2r
2A	.	.	[2ee
=65	=65	=65	=65
1E	0B	1g	2ee]
.	.	.	2ee
1G	.	1d	2b
.	.	.	[2ee
=66	=66	=66	=66
4D	0A	2f	2ee]
4E	.	.	.
4F	.	2f	2a
4G	.	.	.
2A	.	2.e	2cc
[2c	.	.	2cc
.	.	8d	.
.	.	8c	.
=67	=67	=67	=67
2c]	0G	1g	0dd
4B	.	.	.
4A	.	.	.
2B	.	1g	.
2B	.	.	.
=68	=68	=68	=68
1c	0A	2r	2.cc
.	.	2.c	.
.	.	.	4b
1F	.	.	1a
.	.	4c	.
.	.	2c	.
=69	=69	=69	=69
2r	0c	2.e	1g
2.C	.	.	.
.	.	4f	.
.	.	2.g	2r
4C	.	.	.
2C	.	.	[2g
.	.	4f	.
=70	=70	=70	=70
2.E	0B	4e	4g]
.	.	4d	4g
.	.	2e	2g
4F#	.	.	.
1G	.	2d	2.b
.	.	[2g	.
.	.	.	4cc
=71	=71	=71	=71
0D	0A	2g]	0dd
.	.	4f#	.
.	.	4e	.
.	.	1f#	.
=72	=72	=72	=72
0G	0G	0g	0b
=73	=73	=73	=73
0D	[0d	0f#	0a
=74	=74	=74	=74
1G	0d]	1.g	1b
1D	.	.	2a
.	.	4f	2a
.	.	4e	.
=75	=75	=75	=75
2D	[0d	2f	2.dd
1G	.	2d	.
.	.	.	4cc
.	.	2g	2b
2F#	.	[2a	2a
=76	=76	=76	=76
1G	0d]	4a]	1b
.	.	4g	.
.	.	1g	.
1D	.	.	2a
.	.	2f#	[2dd
=77	=77	=77	=77
2r	[0B	1g	2dd]
1G	.	.	2dd
.	.	[1d	1dd
2G	.	.	.
=78	=78	=78	=78
1G	0B]	1d]	2b
.	.	.	2.g
2E	.	1r	.
.	.	.	4a
[2G	.	.	[2b
=79	=79	=79	=79
2G]	0d	0r	2b]
4F	.	.	4a
4E	.	.	4g
1F	.	.	2.a
.	.	.	4b
=80	=80	=80	=80
1E	[0e	2r	2cc
.	.	1g	4b
.	.	.	4a
2r	.	.	2b
[2c	.	2g	2e
=81	=81	=81	=81
2c]	1e_	1g	2r
2c	.	.	1cc
1c	1e_	2e	.
.	.	[2c	2cc
=82	=82	=82	=82
0A	0e]	4c]	1cc
.	.	4B	.
.	.	4A	.
.	.	4B	.
.	.	4c	2a
.	.	4d	.
.	.	2e	[2cc
=83	=83	=83	=83
2F	[0d	4f	2cc]
.	.	4e	.
2.G	.	4d	4b
.	.	4c	4a
.	.	4B	1b
4F#	.	4A	.
2G	.	4G	.
.	.	[4g	.
=84	=84	=84	=84
0D	0d]	4g]	0a
.	.	2f	.
.	.	4e	.
.	.	1f#	.
=85	=85	=85	=85
0G	[0d	2g	1b
.	.	2d	.
.	.	1g	1r
=86	=86	=86	=86
0r	0d]	2f	1a
.	.	2d	.
.	.	2.f	1dd
.	.	4g	.
=87	=87	=87	=87
0r	0r	1.a	2cc
.	.	.	2a
.	.	.	2cc
.	.	4g	2dd
.	.	4f	.
=88	=88	=88	=88
1A	0r	2e	1ee
.	.	2c	.
1d	.	2.f	2.a
.	.	4g	4b
=89	=89	=89	=89
2c	0r	4a	4cc
.	.	4b	4dd
2A	.	2.cc	1ee
2c	.	.	.
.	.	4b	.
2d	.	[2a	4dd
.	.	.	4cc
=90	=90	=90	=90
1e	0r	2a]	1b
.	.	2g#	.
1A	.	1a	1a
=91	=91	=91	=91
2r	[0d	1.f#	2r
1D	.	.	1a
2D	.	2f#	2a
=92	=92	=92	=92
1D	0d]	1f#	1a
[1G	.	1r	[1b
=93	=93	=93	=93
2G]	0d	1.g	2b]
2G	.	.	2b
[1G	.	.	2.b
.	.	2g	.
.	.	.	4cc
=94	=94	=94	=94
1G]	[0B	2.g	4dd
.	.	.	4ee
.	.	.	2.dd
.	.	8f	.
.	.	8e	.
2r	.	2d	.
.	.	.	4cc
[2E	.	[2e	4b
.	.	.	4a
=95	=95	=95	=95
2E]	1B_	2e]	0g
2G	.	2d	.
2E	1B_	2e	.
2G	.	2d	.
=96	=96	=96	=96
2.E	0B]	1e	0r
4F	.	.	.
1G	.	1d	.
=97	=97	=97	=97
2F	[0c	1.f	1.a
1F	.	.	.
2c	.	2e	2g
=98	=98	=98	=98
2F	0c]	2f	2a
2C	.	2e	2g
1F	.	1f	1a
=99	=99	=99	=99
2.D	[0d	2f	2a
.	.	2.d	2b-
4E	.	.	.
2F	.	.	2a
.	.	4c	.
2G	.	2B-	[2g
=100	=100	=100	=100
1D	0d]	1A	2g]
.	.	.	2f#
1r	.	1G	2g
.	.	.	2g
=101	=101	=101	=101
1G	0d	1r	1b-
1B-	.	2r	2f
.	.	2d	2f
=102	=102	=102	=102
2F	[0c	1f	2.a
2F	.	.	.
.	.	.	4a
2.A	.	2e	2a
.	.	2c	[2cc
4A	.	.	.
=103	=103	=103	=103
2A	0c]	2.e	2cc]
1c	.	.	4b
.	.	4e	4a
.	.	2e	1g
4B	.	[2g	.
4A	.	.	.
=104	=104	=104	=104
4B	[0G	2g]	0r
4c	.	.	.
1d	.	2f	.
.	.	1e	.
[2c	.	.	.
=105	=105	=105	=105
2c]	0G]	2.d	2r
4B	.	.	1dd
4A	.	4c	.
1B	.	4d	.
.	.	4e	.
.	.	[2d	2dd
=106	=106	=106	=106
2.E	[0G	2d]	1ee
.	.	1c	.
4F#	.	.	.
1G	.	.	1dd
.	.	4B	.
.	.	4A	.
=107	=107	=107	=107
0r	0G]	2B	2.g
.	.	1d	.
.	.	.	4a
.	.	.	4b
.	.	.	4cc
.	.	2d	[2dd
=108	=108	=108	=108
1.G	0r	1e	2dd]
.	.	.	1cc
.	.	1d	.
2G	.	.	2b
=109	=109	=109	=109
1A	0r	2.c	1cc
.	.	4d	.
2.G	.	4e	1r
.	.	4f	.
.	.	[2g	.
4A	.	.	.
=110	=110	=110	=110
4B	0r	2g]	0r
4c	.	.	.
1d	.	4f	.
.	.	4e	.
.	.	2f	.
[2c	.	2e	.
=111	=111	=111	=111
2c]	0r	1d	2r
2B	.	.	1g
2.c	.	1e	.
.	.	.	2g
4B	.	.	.
=112	=112	=112	=112
0A	0r	2r	1a
.	.	1c	.
.	.	.	1cc
.	.	2c	.
=113	=113	=113	=113
1G	0r	1d	2b
.	.	.	2b
1r	.	1f	1a
=114	=114	=114	=114
2r	0r	2e	2.g
1G	.	2e	.
.	.	.	4a
.	.	2d	1b
2G	.	[2e	.
=115	=115	=115	=115
2A	0r	4e]	1cc
.	.	4d	.
2c	.	4e	.
.	.	4c	.
2c	.	1d	2r
2B	.	.	2dd
=116	=116	=116	=116
4c	0r	0c	1ee
4B	.	.	.
4A	.	.	.
4G	.	.	.
1A	.	.	2cc
.	.	.	[2ee
=117	=117	=117	=117
2E	0r	1g	4ee]
.	.	.	4dd
2G	.	.	2b
[1F	.	1a	2cc
.	.	.	2cc
=118	=118	=118	=118
2F]	0r	2f	2.a
2D	.	2.a	.
.	.	.	4b
2A	.	.	4cc
.	.	4g	4dd
2A	.	2e	4ee
.	.	.	4cc
=119	=119	=119	=119
1F	0r	2f	2dd
.	.	2f	1cc
2r	.	1d	.
2G	.	.	2b
=120	=120	=120	=120
1A	[0c	0r	2.cc
.	.	.	4b
2F	.	.	[1a
[2A	.	.	.
=121	=121	=121	=121
4A]	0c]	2r	2a]
4G	.	.	.
2E	.	2g	2g
[1F	.	1a	2.f
.	.	.	4g
=122	=122	=122	=122
2F]	0c	2f	1a
2E	.	2.a	.
1C	.	.	2r
.	.	4g	.
.	.	2e	2g
=123	=123	=123	=123
1F	0c	2.f	1a
.	.	8e	.
.	.	8d	.
[1F	.	2c	2f
.	.	4A	[2a
.	.	4B	.
=124	=124	=124	=124
2F]	[0A	4c	4a]
.	.	4d	4g
2C	.	2.e	2e
1D	.	.	2f
.	.	4d	.
.	.	[2d	2f
=125	=125	=125	=125
1r	0A]	2d]	1e
.	.	4c	.
.	.	4B	.
[1A	.	2.c	2r
.	.	.	[2ee
.	.	4d	.
=126	=126	=126	=126
1A]	[0c	2e	2ee]
.	.	1a	1cc
1F	.	.	.
.	.	2a	[2ff
=127	=127	=127	=127
0C	0c]	0g	2ff]
.	.	.	4ee
.	.	.	4dd
.	.	.	1ee
=128	=128	=128	=128
0G	[0B	1g	[0dd
.	.	2r	.
.	.	2g	.
=129	=129	=129	=129
2r	1B]	2d	1dd]
2G	.	2d	.
2D	[1A	[1f	2r
2D	.	.	2dd
=130	=130	=130	=130
2.F	0A]	2f]	2a
.	.	2f	2a
4G	.	.	.
4A	.	2.e	2.cc
4B	.	.	.
[2c	.	.	.
.	.	4f	4dd
=131	=131	=131	=131
2c]	0G	0g	2ee
4B	.	.	4dd
4A	.	.	4cc
2B	.	.	2dd
2B	.	.	2dd
=132	=132	=132	=132
1c	0A	1e	4cc
.	.	.	4b
.	.	.	4a
.	.	.	4g
2.F	.	2r	1a
.	.	2f	.
4G	.	.	.
=133	=133	=133	=133
1A	0c	2e	2r
.	.	2c	2a
2r	.	1e	2g
2A	.	.	2e
=134	=134	=134	=134
2G	0B	2r	1g
2E	.	2e	.
1G	.	2d	1g
.	.	2B	.
=135	=135	=135	=135
2F	0A	1d	1a
2D	.	.	.
1F	.	2c	1r
.	.	2A	.
=136	=136	=136	=136
2E	0G	1c	1r
2C	.	.	.
2.E	.	1B	2r
.	.	.	2ee
4F	.	.	.
=137	=137	=137	=137
1G	0r	2r	2dd
.	.	2g	2b
1D	.	2f	1dd
.	.	2d	.
=138	=138	=138	=138
2r	0r	1f	2cc
2d	.	.	2a
2c	.	2e	1cc
2A	.	2c	.
=139	=139	=139	=139
1c	0r	2.e	2cc
.	.	.	2.ee
.	.	4f	.
2B-	.	2.g	.
.	.	.	4dd
2G	.	.	[2dd
.	.	4f	.
=140	=140	=140	=140
1A	0r	1e	2dd]
.	.	.	2cc#
2D	.	1d	[1dd
2G	.	.	.
=141	=141	=141	=141
2F	0A	2r	1dd]
2D	.	2d	.
1F	.	2c	1r
.	.	2A	.
=142	=142	=142	=142
2E	0G	1c	1r
2C	.	.	.
1E	.	2B	1gg
.	.	2G	.
=143	=143	=143	=143
0D	0A	0d	2ff
.	.	.	2dd
.	.	.	1ff
=144	=144	=144	=144
2.A	0c	1.e	2ee
.	.	.	2cc
4B	.	.	.
2c	.	.	1ee
2C	.	[2g	.
=145	=145	=145	=145
0G	0B	2g]	2.dd
.	.	4f	.
.	.	4e	4cc
.	.	1d	2b
.	.	.	[2g
=146	=146	=146	=146
0D	0A	[0d	2g]
.	.	.	4f
.	.	.	4e
.	.	.	1f#
=147	=147	=147	=147
2.G	[0G	1d]	2.g
4F	.	.	4a
2.E	.	2r	1b
.	.	[2g	.
4D	.	.	.
=148	=148	=148	=148
0C	1G_	4g]	0cc
.	.	4f	.
.	.	4e	.
.	.	4d	.
.	1G_	1e	.
=149	=149	=149	=149
[0G	0G]	[0d	[0b
=150	=150	=150	=150
0G]	0G	0d]	0b]
==	==	==	==
*-	*-	*-	*-
!!!CDT: 1525/^1526/-1594/2/2
!!!OCY: Italia
!!!AGN: Mass (Tenor)
!!!AST: renaissance, vocal
!!!ASW: Antiphon
!!!PWK: Masses, Book I
!!!RNB: Cadence finals: D,C
!!!YOR: Le Opere Complete, v. 1, p. 1
!!!YOO: Rome, Italy: Fratelli Scalera
!!!END: 1992//
!!!EED: John Miller
!!!YEC: Copyright 2000, John Miller
!!!YEN: United States of America
!!!YEM: Rights to all derivative electronic formats reserved.
!!!YEM: Refer to licensing agreement for further details.
!!!YEM: This file must be accompanied by the licensing agreement.
!!!YEM: A copy of the licensing agreement may be found at http://www.music-cog.ohio-state.edu/HumdrumDatabases/Palestrina/license.txt
!!!EMD: converted to Humdrum by Bret Aarden
